X: 9588
T: Davie Taylor
R: strathspey
M: 4/4
K: Gmajor
|:D/|(3GFE (3DEF G2 D>C|B,<D G>B A<A, A,>D|(3GFE (3DEF G>g e>c|B<d c>A B<G G3/2:|
c/|(3Bcd G>g e<g c>e|(3^cde A>a f<d d>=c|(3Bcd G>g e<g c>e|d<g A>c B<G G>c|
(3Bcd g>f e<g c>e|(3^cde a>g f<a d>f|(3gfe (3def (3gdc (3BAG|(3FED (3CB,A, B,<G, G,3/2||

